images/webflow-badge-text-d2.c82cec3b78.svg

<svg fill="none" height="12" viewBox="0 0 118 12" width="118" xmlns="http://www.w3.org/2000/svg"><g fill="#080808"><path d="m.525024.896484h2.529296l2.95344 7.369736 2.89129-7.369736h2.45405v10.103516h-1.87983v-7.20051l-2.80957 7.20051h-1.47657l-2.80273-7.07923v7.07923h-1.859376z"/><path d="m16.152 11.1367c-.6608 0-1.251-.1663-1.7705-.499-.515-.3327-.9206-.79753-1.2168-1.39454-.2963-.60156-.4421-1.29427-.4375-2.07812 0-.78386.1504-1.47428.4511-2.07129.3008-.59701.711-1.05729 1.2305-1.38086.5241-.32812 1.1188-.48991 1.7842-.48535.4375 0 .8431.08203 1.2168.24609.3737.15951.6836.38054.9297.66309.2506.27799.4147.58105.4922.90918l-.335-.01367v-1.66114h1.8731v7.62891h-1.8526l.0068-1.47656.3282-.19141c-.1094.33724-.2963.64258-.5606.91597-.2643.2735-.5833.49-.957.6495s-.7679.2392-1.1826.2392zm.4101-1.58592c.3874 0 .7315-.10026 1.0323-.30078.3007-.20052.5354-.48079.7041-.84082.1686-.36003.2552-.77474.2597-1.24414 0-.46484-.0843-.87728-.2529-1.23731-.1686-.36002-.4056-.63802-.7109-.83398-.3008-.19596-.6449-.29395-1.0323-.29395-.3828 0-.7177.10027-1.0048.30079-.2872.19596-.5082.47395-.6631.83398-.155.36003-.2325.77246-.2325 1.23731 0 .46484.0775.87727.2325 1.2373.1595.35547.3828.63574.6699.84082.2871.20052.6198.30078.998.30078z"/><path d="m26.3033 10.9043c-.3782.1549-.7701.2324-1.1757.2324-.6608 0-1.251-.164-1.7705-.4922-.5196-.3327-.9252-.79749-1.2168-1.3945-.2872-.60156-.4307-1.29427-.4307-2.07812 0-.78842.1481-1.48112.4443-2.07813.2963-.60156.7041-1.06413 1.2237-1.3877.5241-.32356 1.1188-.48307 1.7841-.47851.4148 0 .8112.07975 1.1895.23926.3783.15494.6973.37369.957.65625.2644.28255.4352.59928.5127.95019l-.3281-.00683v-4.60059h1.873v10.53418h-1.8525l.0068-1.69531.3282-.02051c-.0957.35547-.2826.67448-.5606.95702-.2734.2826-.6015.5036-.9844.6631zm-1.7568-1.66114c.2917.20052.6289.30079 1.0117.30079.3737 0 .7087-.10027 1.0049-.30079.3008-.20507.5378-.48763.7109-.84765.1732-.36003.2621-.76791.2666-1.22363 0-.46485-.0843-.87728-.2529-1.23731-.1686-.36458-.4033-.64258-.7041-.83398-.3008-.19597-.6426-.29395-1.0254-.29395-.3873 0-.7269.09798-1.0185.29395-.2917.19596-.515.47395-.6699.83398-.155.36003-.2325.77246-.2325 1.23731 0 .46484.0775.87727.2325 1.2373.1595.35547.385.63346.6767.83398z"/><path d="m34.5612 11.1709c-.7566 0-1.4265-.1641-2.0098-.4922-.5788-.3281-1.03-.79296-1.3535-1.39452-.3236-.60156-.4854-1.29655-.4854-2.08496 0-.76107.1641-1.44238.4922-2.04395.3281-.60612.7816-1.0778 1.3604-1.41504.5787-.33724 1.2327-.50585 1.9619-.50585.7747 0 1.4583.17089 2.0508.51269.597.3418 1.0504.84766 1.3603 1.51758.3099.66536.4307 1.46061.3623 2.38574h-5.6797-1.122l1.1444-1.22654 4.2354-.01076-.4921.20507c-.0092-.37369-.0912-.70638-.2461-.99804-.1504-.29167-.3623-.51726-.6358-.67676-.2734-.16406-.5879-.24609-.9433-.24609-.3737 0-.7087.08886-1.0049.2666-.2917.17773-.5218.4261-.6905.74511-.1135.22082-.1878.45911-.2227.71487-.0156.11373-.0233.23091-.0233.35154v.75879c-.0005.03916-.0002.07789.0009.11621.0102.3809.0919.72042.2451 1.01856.1687.32356.4011.57421.6973.75195.3008.17773.6426.2666 1.0254.2666.278 0 .5332-.04785.7656-.14355.237-.10027.4352-.23471.5948-.40333.164-.17317.2802-.37369.3486-.60156h1.9209c-.1003.52409-.3167.98438-.6494 1.38086-.3282.39648-.752.70408-1.2715.92288-.515.2187-1.0938.3281-1.7363.3281z"/><path d="m42.9283 3.37109h1.8731v7.62891h-1.8731zm-.0341-3.000973h1.9756v1.914063h-1.9756z"/><path d="m48.3356 11h-1.8662v-7.62891h1.8252v1.56543l-.3008.12305c.0866-.36458.2529-.68587.499-.96387.2461-.28255.5492-.49902.9092-.64941.36-.15495.7428-.23014 1.1484-.22559.5378 0 1.0095.11621 1.4151.34864.4056.22786.7177.55826.9365.99121.2233.43294.3349.94108.3349 1.52441v4.91504h-1.873v-4.53223c0-.33724-.057-.62662-.1709-.86816-.1094-.24609-.2712-.43066-.4854-.55371-.2096-.12761-.4602-.19141-.7519-.19141-.3054 0-.5811.0752-.8272.22559-.2415.14583-.4352.35547-.581.6289-.1413.26888-.2119.5765-.2119.92286z"/><path d="m57.5162.896484h2.0713l1.9215 7.154346 2.0229-7.154346h1.8183l2.1433 7.050226 1.8421-7.050226h1.9482l-2.8848 10.103516h-1.873l-2.9463-9.36523h1.5176l-2.8233 9.36523h-1.832z"/><path d="m75.153 11.1709c-.7566 0-1.4265-.1641-2.0098-.4922-.5788-.3281-1.03-.79296-1.3535-1.39452-.3236-.60156-.4854-1.29655-.4854-2.08496 0-.76107.1641-1.44238.4922-2.04395.3281-.60612.7816-1.0778 1.3604-1.41504.5787-.33724 1.2327-.50585 1.9619-.50585.7747 0 1.4583.17089 2.0508.51269.597.3418 1.0504.84766 1.3603 1.51758.3099.66536.4307 1.46061.3623 2.38574h-6.8017v-1.22363l5.3798-.01367-.4922.20507c-.0091-.37369-.0911-.70638-.246-.99804-.1504-.29167-.3623-.51726-.6358-.67676-.2734-.16406-.5879-.24609-.9433-.24609-.3737 0-.7087.08886-1.0049.2666-.2917.17773-.5218.4261-.6905.74511-.164.31901-.2461.67448-.2461 1.06641v.75879c-.0045.42839.0775.80664.2461 1.13477.1687.32356.4011.57421.6973.75195.3008.17773.6426.2666 1.0254.2666.278 0 .5332-.04785.7656-.14355.237-.10027.4352-.23471.5947-.40333.1641-.17317.2803-.37369.3487-.60156h1.9209c-.1003.52409-.3168.98438-.6494 1.38086-.3282.39648-.752.70408-1.2715.92288-.515.2187-1.0938.3281-1.7363.3281z"/><path d="m84.4293 11.1367c-.4056 0-.7998-.0775-1.1826-.2324-.3783-.1595-.7064-.3805-.9844-.6631-.2734-.28254-.458-.60155-.5537-.95702l.3281.02051.0069 1.69531h-1.8526v-10.53418h1.8731v4.60059l-.3281.00683c.0774-.35091.2461-.66764.5058-.95019.2643-.28256.5856-.50131.9639-.65625.3782-.15951.7747-.23926 1.1894-.23926.6654-.00456 1.2579.15495 1.7774.47851.5241.32357.9342.78614 1.2305 1.3877.2962.59701.4443 1.28971.4443 2.07813 0 .78385-.1458 1.47656-.4375 2.07812-.2871.59701-.6904 1.0618-1.21 1.3945-.5195.3282-1.1097.4922-1.7705.4922zm-.4306-1.59275c.3828 0 .72-.10027 1.0117-.30079.2916-.20052.5149-.47851.6699-.83398.1595-.36003.2393-.77246.2393-1.2373 0-.46485-.0775-.87728-.2325-1.23731-.1549-.36003-.3782-.63802-.6699-.83398-.2917-.19597-.6312-.29395-1.0185-.29395-.3829 0-.7247.09798-1.0254.29395-.3008.1914-.5355.4694-.7041.83398-.1687.36003-.253.77246-.253 1.23731.0046.45572.0935.8636.2666 1.22363.1732.36002.4079.64258.7041.84765.3008.20052.6381.30079 1.0118.30079z"/><path d="m89.7408 2.85156c0-.51041.1163-.95931.3487-1.34668.237-.39192.5674-.692706.9912-.902341.4238-.214193.9183-.323568 1.4834-.328125.1321 0 .2552.006836.3691.020508.1185.013672.2165.031901.294.054687v1.572271l-.0342-.01368c-.0593-.01823-.1299-.0319-.2119-.04101-.0775-.01367-.1527-.02279-.2256-.02735-.2507.00456-.4626.05241-.6357.14356-.1687.08659-.2963.21647-.3829.38965-.0866.17317-.1298.38053-.1298.62207v8.00488h-1.8663zm-1.2373.51953h4.6211v1.51758h-4.6211z"/><path d="m96.2076 11h-1.8662v-10.547852h1.8662zm-1.8662-10.547852h1.8662v1.483402h-1.8662zm0 9.064452h1.8662v1.4834h-1.8662z"/><path d="m101.403 11.1641c-.761 0-1.4333-.1664-2.0166-.4991-.5788-.3326-1.03-.79977-1.3536-1.40133-.3235-.60156-.4853-1.28971-.4853-2.06445 0-.78386.1618-1.47656.4853-2.07813.3236-.60612.7748-1.07552 1.3536-1.4082.5833-.33268 1.2556-.49902 2.0166-.49902s1.433.16634 2.017.49902c.587.33268 1.043.80208 1.367 1.4082.323.60157.487 1.29427.492 2.07813-.005.7793-.169 1.46973-.492 2.07129-.324.597-.78 1.06189-1.367 1.39449-.584.3327-1.256.4991-2.017.4991zm0-1.58598c.392 0 .736-.10026 1.032-.30078s.522-.48079.677-.84082c.155-.36002.232-.77246.232-1.2373 0-.4694-.077-.88412-.232-1.24414-.155-.36459-.381-.64714-.677-.84766s-.64-.30078-1.032-.30078-.734.10026-1.025.30078c-.292.20052-.5177.48307-.6772.84766-.1549.36002-.2324.77474-.2324 1.24414s.0797.88411.2392 1.24414c.1595.35547.3824.63346.6704.83398.291.20052.633.30078 1.025.30078z"/><path d="m105.737 3.37109h2.03l1.948 7.15041h-1.141l2.037-7.15041h1.839l2.126 7.20511-1.244.0068 1.962-7.21191h1.879l-2.29 7.62891h-1.845l-2.236-6.88379h1.162l-2.084 6.88379h-1.86z"/></g></svg>

<svg width="118" height="12" viewBox="0 0 118 12" fill="none" xmlns="http://www.w3.org/2000/svg">
<path d="M0.525024 0.896484H3.05432L6.00776 8.26622L8.89905 0.896484H11.3531V11H9.47327V3.79949L6.6637 11H5.18713L2.3844 3.92077V11H0.525024V0.896484Z" fill="#080808"/>
<path d="M16.152 11.1367C15.4912 11.1367 14.901 10.9704 14.3815 10.6377C13.8665 10.305 13.4609 9.84017 13.1647 9.24316C12.8684 8.6416 12.7226 7.94889 12.7272 7.16504C12.7272 6.38118 12.8776 5.69076 13.1783 5.09375C13.4791 4.49674 13.8893 4.03646 14.4088 3.71289C14.9329 3.38477 15.5276 3.22298 16.193 3.22754C16.6305 3.22754 17.0361 3.30957 17.4098 3.47363C17.7835 3.63314 18.0934 3.85417 18.3395 4.13672C18.5901 4.41471 18.7542 4.71777 18.8317 5.0459L18.4967 5.03223V3.37109H20.3698V11H18.5172L18.524 9.52344L18.8522 9.33203C18.7428 9.66927 18.5559 9.97461 18.2916 10.248C18.0273 10.5215 17.7083 10.738 17.3346 10.8975C16.9609 11.057 16.5667 11.1367 16.152 11.1367ZM16.5621 9.55078C16.9495 9.55078 17.2936 9.45052 17.5944 9.25C17.8951 9.04948 18.1298 8.76921 18.2985 8.40918C18.4671 8.04915 18.5537 7.63444 18.5582 7.16504C18.5582 6.7002 18.4739 6.28776 18.3053 5.92773C18.1367 5.56771 17.8997 5.28971 17.5944 5.09375C17.2936 4.89779 16.9495 4.7998 16.5621 4.7998C16.1793 4.7998 15.8444 4.90007 15.5573 5.10059C15.2701 5.29655 15.0491 5.57454 14.8942 5.93457C14.7392 6.2946 14.6617 6.70703 14.6617 7.17188C14.6617 7.63672 14.7392 8.04915 14.8942 8.40918C15.0537 8.76465 15.277 9.04492 15.5641 9.25C15.8512 9.45052 16.1839 9.55078 16.5621 9.55078Z" fill="#080808"/>
<path d="M26.3033 10.9043C25.9251 11.0592 25.5332 11.1367 25.1276 11.1367C24.4668 11.1367 23.8766 10.9727 23.3571 10.6445C22.8375 10.3118 22.4319 9.84701 22.1403 9.25C21.8531 8.64844 21.7096 7.95573 21.7096 7.17188C21.7096 6.38346 21.8577 5.69076 22.1539 5.09375C22.4502 4.49219 22.858 4.02962 23.3776 3.70605C23.9017 3.38249 24.4964 3.22298 25.1617 3.22754C25.5765 3.22754 25.9729 3.30729 26.3512 3.4668C26.7295 3.62174 27.0485 3.84049 27.3082 4.12305C27.5726 4.4056 27.7434 4.72233 27.8209 5.07324L27.4928 5.06641V0.46582H29.3658V11H27.5133L27.5201 9.30469L27.8483 9.28418C27.7526 9.63965 27.5657 9.95866 27.2877 10.2412C27.0143 10.5238 26.6862 10.7448 26.3033 10.9043ZM24.5465 9.24316C24.8382 9.44368 25.1754 9.54395 25.5582 9.54395C25.9319 9.54395 26.2669 9.44368 26.5631 9.24316C26.8639 9.03809 27.1009 8.75553 27.274 8.39551C27.4472 8.03548 27.5361 7.6276 27.5406 7.17188C27.5406 6.70703 27.4563 6.2946 27.2877 5.93457C27.1191 5.56999 26.8844 5.29199 26.5836 5.10059C26.2828 4.90462 25.941 4.80664 25.5582 4.80664C25.1709 4.80664 24.8313 4.90462 24.5397 5.10059C24.248 5.29655 24.0247 5.57454 23.8698 5.93457C23.7148 6.2946 23.6373 6.70703 23.6373 7.17188C23.6373 7.63672 23.7148 8.04915 23.8698 8.40918C24.0293 8.76465 24.2548 9.04264 24.5465 9.24316Z" fill="#080808"/>
<path d="M34.5612 11.1709C33.8046 11.1709 33.1347 11.0068 32.5514 10.6787C31.9726 10.3506 31.5214 9.88574 31.1979 9.28418C30.8743 8.68262 30.7125 7.98763 30.7125 7.19922C30.7125 6.43815 30.8766 5.75684 31.2047 5.15527C31.5328 4.54915 31.9863 4.07747 32.5651 3.74023C33.1438 3.40299 33.7978 3.23438 34.527 3.23438C35.3017 3.23438 35.9853 3.40527 36.5778 3.74707C37.1748 4.08887 37.6282 4.59473 37.9381 5.26465C38.248 5.93001 38.3688 6.72526 38.3004 7.65039H32.6207H31.4987L32.6431 6.42385L36.8785 6.41309L36.3864 6.61816C36.3772 6.24447 36.2952 5.91178 36.1403 5.62012C35.9899 5.32845 35.778 5.10286 35.5045 4.94336C35.2311 4.7793 34.9166 4.69727 34.5612 4.69727C34.1875 4.69727 33.8525 4.78613 33.5563 4.96387C33.2646 5.1416 33.0345 5.38997 32.8658 5.70898C32.7523 5.9298 32.678 6.16809 32.6431 6.42385C32.6275 6.53758 32.6198 6.65476 32.6198 6.77539V7.53418C32.6193 7.57334 32.6196 7.61207 32.6207 7.65039C32.6309 8.03129 32.7126 8.37081 32.8658 8.66895C33.0345 8.99251 33.2669 9.24316 33.5631 9.4209C33.8639 9.59863 34.2057 9.6875 34.5885 9.6875C34.8665 9.6875 35.1217 9.63965 35.3541 9.54395C35.5911 9.44368 35.7893 9.30924 35.9489 9.14062C36.1129 8.96745 36.2291 8.76693 36.2975 8.53906H38.2184C38.1181 9.06315 37.9017 9.52344 37.569 9.91992C37.2408 10.3164 36.817 10.624 36.2975 10.8428C35.7825 11.0615 35.2037 11.1709 34.5612 11.1709Z" fill="#080808"/>
<path d="M42.9283 3.37109H44.8014V11H42.9283V3.37109ZM42.8942 0.370117H44.8698V2.28418H42.8942V0.370117Z" fill="#080808"/>
<path d="M48.3356 11H46.4694V3.37109H48.2946V4.93652L47.9938 5.05957C48.0804 4.69499 48.2467 4.3737 48.4928 4.0957C48.7389 3.81315 49.042 3.59668 49.402 3.44629C49.762 3.29134 50.1448 3.21615 50.5504 3.2207C51.0882 3.2207 51.5599 3.33691 51.9655 3.56934C52.3711 3.7972 52.6832 4.1276 52.902 4.56055C53.1253 4.99349 53.2369 5.50163 53.2369 6.08496V11H51.3639V6.46777C51.3639 6.13053 51.3069 5.84115 51.193 5.59961C51.0836 5.35352 50.9218 5.16895 50.7076 5.0459C50.498 4.91829 50.2474 4.85449 49.9557 4.85449C49.6503 4.85449 49.3746 4.92969 49.1285 5.08008C48.887 5.22591 48.6933 5.43555 48.5475 5.70898C48.4062 5.97786 48.3356 6.28548 48.3356 6.63184V11Z" fill="#080808"/>
<path d="M57.5162 0.896484H59.5875L61.509 8.05083L63.5319 0.896484H65.3502L67.4935 7.94671L69.3356 0.896484H71.2838L68.399 11H66.526L63.5797 1.63477H65.0973L62.274 11H60.442L57.5162 0.896484Z" fill="#080808"/>
<path d="M75.153 11.1709C74.3964 11.1709 73.7265 11.0068 73.1432 10.6787C72.5644 10.3506 72.1132 9.88574 71.7897 9.28418C71.4661 8.68262 71.3043 7.98763 71.3043 7.19922C71.3043 6.43815 71.4684 5.75684 71.7965 5.15527C72.1246 4.54915 72.5781 4.07747 73.1569 3.74023C73.7356 3.40299 74.3896 3.23438 75.1188 3.23438C75.8935 3.23438 76.5771 3.40527 77.1696 3.74707C77.7666 4.08887 78.22 4.59473 78.5299 5.26465C78.8398 5.93001 78.9606 6.72526 78.8922 7.65039H72.0905V6.42676L77.4703 6.41309L76.9781 6.61816C76.969 6.24447 76.887 5.91178 76.7321 5.62012C76.5817 5.32845 76.3698 5.10286 76.0963 4.94336C75.8229 4.7793 75.5084 4.69727 75.153 4.69727C74.7793 4.69727 74.4443 4.78613 74.1481 4.96387C73.8564 5.1416 73.6263 5.38997 73.4576 5.70898C73.2936 6.02799 73.2115 6.38346 73.2115 6.77539V7.53418C73.207 7.96257 73.289 8.34082 73.4576 8.66895C73.6263 8.99251 73.8587 9.24316 74.1549 9.4209C74.4557 9.59863 74.7975 9.6875 75.1803 9.6875C75.4583 9.6875 75.7135 9.63965 75.9459 9.54395C76.1829 9.44368 76.3811 9.30924 76.5406 9.14062C76.7047 8.96745 76.8209 8.76693 76.8893 8.53906H78.8102C78.7099 9.06315 78.4934 9.52344 78.1608 9.91992C77.8326 10.3164 77.4088 10.624 76.8893 10.8428C76.3743 11.0615 75.7955 11.1709 75.153 11.1709Z" fill="#080808"/>
<path d="M84.4293 11.1367C84.0237 11.1367 83.6295 11.0592 83.2467 10.9043C82.8684 10.7448 82.5403 10.5238 82.2623 10.2412C81.9889 9.95866 81.8043 9.63965 81.7086 9.28418L82.0367 9.30469L82.0436 11H80.191V0.46582H82.0641V5.06641L81.736 5.07324C81.8134 4.72233 81.9821 4.4056 82.2418 4.12305C82.5061 3.84049 82.8274 3.62174 83.2057 3.4668C83.5839 3.30729 83.9804 3.22754 84.3951 3.22754C85.0605 3.22298 85.653 3.38249 86.1725 3.70605C86.6966 4.02962 87.1067 4.49219 87.403 5.09375C87.6992 5.69076 87.8473 6.38346 87.8473 7.17188C87.8473 7.95573 87.7015 8.64844 87.4098 9.25C87.1227 9.84701 86.7194 10.3118 86.1998 10.6445C85.6803 10.9727 85.0901 11.1367 84.4293 11.1367ZM83.9987 9.54395C84.3815 9.54395 84.7187 9.44368 85.0104 9.24316C85.302 9.04264 85.5253 8.76465 85.6803 8.40918C85.8398 8.04915 85.9196 7.63672 85.9196 7.17188C85.9196 6.70703 85.8421 6.2946 85.6871 5.93457C85.5322 5.57454 85.3089 5.29655 85.0172 5.10059C84.7255 4.90462 84.386 4.80664 83.9987 4.80664C83.6158 4.80664 83.274 4.90462 82.9733 5.10059C82.6725 5.29199 82.4378 5.56999 82.2692 5.93457C82.1005 6.2946 82.0162 6.70703 82.0162 7.17188C82.0208 7.6276 82.1097 8.03548 82.2828 8.39551C82.456 8.75553 82.6907 9.03809 82.9869 9.24316C83.2877 9.44368 83.625 9.54395 83.9987 9.54395Z" fill="#080808"/>
<path d="M89.7408 2.85156C89.7408 2.34115 89.8571 1.89225 90.0895 1.50488C90.3265 1.11296 90.6569 0.812174 91.0807 0.602539C91.5045 0.388346 91.999 0.278971 92.5641 0.274414C92.6962 0.274414 92.8193 0.28125 92.9332 0.294922C93.0517 0.308594 93.1497 0.326823 93.2272 0.349609V1.92188L93.193 1.9082C93.1337 1.88997 93.0631 1.8763 92.9811 1.86719C92.9036 1.85352 92.8284 1.8444 92.7555 1.83984C92.5048 1.8444 92.2929 1.89225 92.1198 1.9834C91.9511 2.06999 91.8235 2.19987 91.7369 2.37305C91.6503 2.54622 91.6071 2.75358 91.6071 2.99512V11H89.7408V2.85156ZM88.5035 3.37109H93.1246V4.88867H88.5035V3.37109Z" fill="#080808"/>
<path d="M96.2076 11H94.3414V0.452148H96.2076V11ZM94.3414 0.452148H96.2076V1.93555H94.3414V0.452148ZM94.3414 9.5166H96.2076V11H94.3414V9.5166Z" fill="#080808"/>
<path d="M101.403 11.1641C100.642 11.1641 99.9697 10.9977 99.3864 10.665C98.8076 10.3324 98.3564 9.86523 98.0328 9.26367C97.7093 8.66211 97.5475 7.97396 97.5475 7.19922C97.5475 6.41536 97.7093 5.72266 98.0328 5.12109C98.3564 4.51497 98.8076 4.04557 99.3864 3.71289C99.9697 3.38021 100.642 3.21387 101.403 3.21387C102.164 3.21387 102.836 3.38021 103.42 3.71289C104.007 4.04557 104.463 4.51497 104.787 5.12109C105.11 5.72266 105.274 6.41536 105.279 7.19922C105.274 7.97852 105.11 8.66895 104.787 9.27051C104.463 9.86751 104.007 10.3324 103.42 10.665C102.836 10.9977 102.164 11.1641 101.403 11.1641ZM101.403 9.57812C101.795 9.57812 102.139 9.47786 102.435 9.27734C102.731 9.07682 102.957 8.79655 103.112 8.43652C103.267 8.0765 103.344 7.66406 103.344 7.19922C103.344 6.72982 103.267 6.3151 103.112 5.95508C102.957 5.59049 102.731 5.30794 102.435 5.10742C102.139 4.9069 101.795 4.80664 101.403 4.80664C101.011 4.80664 100.669 4.9069 100.378 5.10742C100.086 5.30794 99.8603 5.59049 99.7008 5.95508C99.5459 6.3151 99.4684 6.72982 99.4684 7.19922C99.4684 7.66862 99.5481 8.08333 99.7076 8.44336C99.8671 8.79883 100.09 9.07682 100.378 9.27734C100.669 9.47786 101.011 9.57812 101.403 9.57812Z" fill="#080808"/>
<path d="M105.737 3.37109H107.767L109.715 10.5215H108.574L110.611 3.37109H112.45L114.576 10.5762L113.332 10.583L115.294 3.37109H117.173L114.883 11H113.038L110.802 4.11621H111.964L109.88 11H108.02L105.737 3.37109Z" fill="#080808"/>
</svg>
